azure-patterns/svg-automate.svg

<svg xmlns="http://www.w3.org/2000/svg" viewBox="0 0 53 53">
                                
                            
  <path fill-rule="evenodd" clip-rule="evenodd" d="M40.4826 27.0878L15.1836 7.82884L16.6986 5.83984L41.9976 25.0988L40.4826 27.0878Z" fill="#0078D4"></path>
  <path fill-rule="evenodd" clip-rule="evenodd" d="M26.1196 42.6978L4.80957 15.1198L6.78757 13.5918L28.0986 41.1698L26.1196 42.6978Z" fill="#0078D4"></path>
  <path fill-rule="evenodd" clip-rule="evenodd" d="M38.3924 51.6636C31.0794 51.6636 25.1304 45.7146 25.1304 38.4026C25.1304 31.0896 31.0794 25.1406 38.3924 25.1406C45.7044 25.1406 51.6544 31.0896 51.6544 38.4026C51.6544 45.7146 45.7044 51.6636 38.3924 51.6636Z" fill="white"></path>
  <path fill-rule="evenodd" clip-rule="evenodd" d="M38.3924 23.8906C30.3904 23.8906 23.8804 30.4006 23.8804 38.4026C23.8804 46.4036 30.3904 52.9136 38.3924 52.9136C46.3934 52.9136 52.9044 46.4036 52.9044 38.4026C52.9044 30.4006 46.3934 23.8906 38.3924 23.8906ZM38.3924 26.3906C45.0264 26.3906 50.4044 31.7676 50.4044 38.4026C50.4044 45.0366 45.0264 50.4136 38.3924 50.4136C31.7584 50.4136 26.3804 45.0366 26.3804 38.4026C26.3804 31.7676 31.7584 26.3906 38.3924 26.3906Z" fill="#0078D4"></path>
  <path fill-rule="evenodd" clip-rule="evenodd" d="M9.363 17.4766C4.889 17.4766 1.25 13.8366 1.25 9.36363C1.25 4.88963 4.889 1.24963 9.363 1.24963C13.837 1.24963 17.476 4.88963 17.476 9.36363C17.476 13.8366 13.837 17.4766 9.363 17.4766Z" fill="white"></path>
  <path fill-rule="evenodd" clip-rule="evenodd" d="M9.363 0C4.2 0 0 4.2 0 9.363C0 14.526 4.2 18.727 9.363 18.727C14.526 18.727 18.726 14.526 18.726 9.363C18.726 4.2 14.526 0 9.363 0ZM9.363 2.5C13.154 2.5 16.226 5.573 16.226 9.363C16.226 13.154 13.154 16.227 9.363 16.227C5.572 16.227 2.5 13.154 2.5 9.363C2.5 5.573 5.572 2.5 9.363 2.5Z" fill="#0078D4"></path>
</svg>

<svg xmlns="http://www.w3.org/2000/svg" viewBox="0 0 53 53"><path fill-rule="evenodd" clip-rule="evenodd" d="M40.483 27.088l-25.3-19.26L16.7 5.84l25.299 19.259-1.515 1.989zM26.12 42.698L4.81 15.12l1.978-1.528 21.31 27.578-1.978 1.528z" fill="#0078D4"/><path fill-rule="evenodd" clip-rule="evenodd" d="M38.392 51.664c-7.313 0-13.262-5.95-13.262-13.261 0-7.313 5.95-13.262 13.262-13.262s13.262 5.949 13.262 13.262c0 7.312-5.95 13.26-13.262 13.26z" fill="#fff"/><path fill-rule="evenodd" clip-rule="evenodd" d="M38.392 23.89c-8.002 0-14.512 6.51-14.512 14.513 0 8 6.51 14.51 14.512 14.51 8.001 0 14.512-6.51 14.512-14.51 0-8.002-6.51-14.512-14.512-14.512zm0 2.5c6.634 0 12.012 5.378 12.012 12.013 0 6.634-5.378 12.01-12.012 12.01S26.38 45.038 26.38 38.404c0-6.635 5.378-12.012 12.012-12.012z" fill="#0078D4"/><path fill-rule="evenodd" clip-rule="evenodd" d="M9.363 17.477c-4.474 0-8.113-3.64-8.113-8.113 0-4.474 3.639-8.114 8.113-8.114s8.113 3.64 8.113 8.114c0 4.473-3.639 8.113-8.113 8.113z" fill="#fff"/><path fill-rule="evenodd" clip-rule="evenodd" d="M9.363 0C4.2 0 0 4.2 0 9.363c0 5.163 4.2 9.364 9.363 9.364 5.163 0 9.363-4.201 9.363-9.364C18.726 4.2 14.526 0 9.363 0zm0 2.5a6.863 6.863 0 0 1 6.863 6.863 6.863 6.863 0 1 1-13.726 0A6.863 6.863 0 0 1 9.363 2.5z" fill="#0078D4"/></svg>
